app/assets/svg/temp__svg.svg

<svg width="60" height="60" viewBox="0 0 60 60" fill="none" xmlns="http://www.w3.org/2000/svg">
<rect width="60" height="60" rx="30" fill="#FAC663"/>
<path d="M39.6795 20.2015C39.9779 20.2015 40.2198 20.4434 40.2198 20.7418C40.2198 21.0402 39.9779 21.2821 39.6795 21.2821H34.8476C34.5492 21.2821 34.3073 21.0402 34.3073 20.7418C34.3073 20.4434 34.5492 20.2015 34.8476 20.2015H39.6795ZM37.7404 23.1803C37.7404 22.8819 37.4985 22.64 37.2001 22.64H34.8476C34.5492 22.64 34.3073 22.8819 34.3073 23.1803C34.3073 23.4787 34.5492 23.7206 34.8476 23.7206H37.2001C37.4985 23.7206 37.7404 23.4787 37.7404 23.1803ZM34.3073 25.6188C34.3073 25.9172 34.5492 26.1591 34.8476 26.1591H39.6795C39.9779 26.1591 40.2198 25.9172 40.2198 25.6188C40.2198 25.3204 39.9779 25.0785 39.6795 25.0785H34.8476C34.5492 25.0785 34.3073 25.3204 34.3073 25.6188ZM37.7404 28.0581C37.7404 27.7597 37.4985 27.5178 37.2001 27.5178H34.8476C34.5492 27.5178 34.3073 27.7597 34.3073 28.0581C34.3073 28.3565 34.5492 28.5984 34.8476 28.5984H37.2001C37.4985 28.5984 37.7404 28.3565 37.7404 28.0581ZM34.3073 30.4966C34.3073 30.795 34.5492 31.0369 34.8476 31.0369H39.6795C39.9779 31.0369 40.2198 30.795 40.2198 30.4966C40.2198 30.1982 39.9779 29.9563 39.6795 29.9563H34.8476C34.5492 29.9563 34.3073 30.1982 34.3073 30.4966ZM35.2289 40.3079C35.2289 44.6221 31.7638 48.1319 27.5046 48.1319C23.2453 48.1319 19.7802 44.6221 19.7802 40.3079C19.7802 37.5122 21.2297 34.9714 23.5947 33.5658V15.8284C23.5947 13.6447 25.3486 11.8681 27.5046 11.8681C29.6605 11.8681 31.4144 13.6447 31.4144 15.8284V33.5658C33.7794 34.9699 35.2289 37.5114 35.2289 40.3079ZM34.1573 40.3079C34.1573 37.9356 32.8558 35.3263 30.7601 34.2484L30.3428 34.0336V15.8292C30.3428 14.497 28.819 12.9495 27.5046 12.9495C26.1901 12.9495 24.6663 14.497 24.6663 15.8292V34.0336L24.249 34.2484C22.1533 35.3271 20.8518 37.9364 20.8518 40.3079C20.8518 43.7698 24.0868 47.0513 27.5046 47.0513C30.9223 47.0513 34.1573 43.7698 34.1573 40.3079ZM32.4321 40.3079C32.4321 43.0596 30.222 45.2982 27.5046 45.2982C24.7879 45.2982 22.5778 43.0596 22.5778 40.3079C22.5778 38.0523 24.5364 36.0718 26.6908 35.4914L26.9739 35.4149V26.4143C26.9739 26.121 27.2116 25.8832 27.5049 25.8832C27.7982 25.8832 28.036 26.121 28.036 26.4143V35.4142L28.319 35.4914C30.4742 36.0718 32.4321 38.0531 32.4321 40.3079ZM28.1832 36.9738C28.0657 36.4452 27.5605 36.5699 27.0257 36.6936C25.1582 37.1217 23.8536 38.7761 23.8536 40.7172C23.8536 41.2666 23.8536 41.8555 24.5495 41.8555C24.9185 41.8555 25.0037 41.2426 25.0037 40.6932C25.0037 39.7064 25.6067 38.2339 27.0257 37.9036C27.5537 37.7808 28.3022 37.5085 28.1832 36.9738Z" fill="#FFFDFB"/>
</svg>

<svg width="60" height="60" fill="none" xmlns="http://www.w3.org/2000/svg"><rect width="60" height="60" rx="30" fill="#FAC663"/><path d="M39.68 20.201a.54.54 0 1 1 0 1.081h-4.832a.54.54 0 1 1 0-1.08h4.831Zm-1.94 2.98a.54.54 0 0 0-.54-.541h-2.352a.54.54 0 1 0 0 1.08H37.2a.54.54 0 0 0 .54-.54Zm-3.433 2.438c0 .298.242.54.54.54h4.832a.54.54 0 1 0 0-1.08h-4.831a.54.54 0 0 0-.54.54Zm3.433 2.44a.54.54 0 0 0-.54-.541h-2.352a.54.54 0 1 0 0 1.08H37.2a.54.54 0 0 0 .54-.54Zm-3.433 2.438c0 .298.242.54.54.54h4.832a.54.54 0 1 0 0-1.08h-4.831a.54.54 0 0 0-.54.54Zm.922 9.81c0 4.315-3.465 7.825-7.724 7.825-4.26 0-7.725-3.51-7.725-7.824a7.806 7.806 0 0 1 3.815-6.742V15.828c0-2.183 1.754-3.96 3.91-3.96 2.155 0 3.91 1.777 3.91 3.96v17.738c2.364 1.404 3.814 3.945 3.814 6.742Zm-1.072 0c0-2.371-1.301-4.98-3.397-6.059l-.417-.214V15.829c0-1.332-1.524-2.88-2.838-2.88-1.315 0-2.839 1.548-2.839 2.88v18.205l-.417.214c-2.096 1.08-3.397 3.688-3.397 6.06 0 3.462 3.235 6.743 6.653 6.743 3.417 0 6.652-3.281 6.652-6.743Zm-1.725 0c0 2.753-2.21 4.991-4.927 4.991-2.717 0-4.927-2.238-4.927-4.99 0-2.256 1.958-4.236 4.113-4.817l.283-.076v-9a.531.531 0 1 1 1.062 0v9l.283.076c2.155.58 4.113 2.562 4.113 4.817Zm-4.249-3.333c-.117-.529-.622-.404-1.157-.28-1.868.428-3.172 2.082-3.172 4.023 0 .55 0 1.139.695 1.139.37 0 .455-.613.455-1.163 0-.987.603-2.46 2.022-2.79.528-.122 1.276-.395 1.157-.93Z" fill="#FFFDFB"/></svg>
